!!!!SEGMENT: pl-cz--iii-572--002_rygall-ignacy--salve-regina-ad-te-suspiramus.krn
!!!cenid: 18xx:1028
!!!COM: Rygall, Ignacy
!!!COM-rismid: pe30110281
!!!CDT: <1750->1799
!!!CNT:
!!!OPR: Salve Regina
!!!OTL: Ad te suspiramus
!!!OMV: 002
!!!PDT:
!!!AGN: Sacred
!!!SMS-siglum: PL-CZ
!!!SMS-shelfmark: III-572
!!!SMS-shelfwork: 001-002 M
!!!SMS-variant:
!!!SMS-altvar:
!!!NIFC-rismid: 300001134
!!!URL-scan: http://repozytorium.nifc.pl/skany/pl-cz-nut--iii-572
!!!ONB-nifc: UWAGA: części Salve Regina: Salve Regina, Ad te suspiramus, Eia ergo, O clemens o pia
!!!key: f
**kern	**kern	**kern	**dynam	**kern	**dynam	**kern	**text	**kern	**kern
*group2	*group2	*group2	*	*group2	*	*	*	*group1	*group1
*part7	*part6	*part5	*part5	*part4	*part4	*part3	*part3	*part2	*part1
*staff7	*staff6	*staff5	*	*staff4	*	*staff3	*staff3	*staff2	*staff1
*I"Baſso	*I"Viola di Praʒa	*I"Violino Secondo	*	*I"Violino Primo	*	*I"Soprano Solo	*	*I"Cornu 2do	*I"Cornu Imo
*I'cb	*I'vla	*I'vl 2	*	*I'vl 1	*	*I'S	*	*I'cor in F	*I'cor in F
*Icbass	*Iviola	*Ivioln	*	*Ivioln	*	*Isoprn	*	*Icor	*Icor
*ICstr	*ICstr	*ICstr	*	*ICstr	*	*ICvox	*	*ICbras	*ICbras
*	*	*	*	*	*	*IGsolo	*	*	*
*clefF4	*clefC3	*clefG2	*	*clefG2	*	*clefC1	*	*clefG2	*clefG2
*ITrd0c0	*	*	*	*	*	*	*	*ITrd4c7	*ITrd4c7
*k[b-e-a-]	*k[b-e-a-]	*k[b-e-a-]	*	*k[b-e-a-]	*	*k[b-e-a-]	*	*k[b-e-a-]	*k[b-e-a-]
*f:	*f:	*f:	*	*f:	*	*f:	*	*f:	*f:
*M3/4	*M3/4	*M3/4	*	*M3/4	*	*M3/4	*	*M3/4	*M3/4
=1	=1	=1	=1	=1	=1	=1	=1	=1	=1
*2\right	*	*	*	*all\right	*	*	*	*	*
!LO:TX:t=P:problem=znaki BB- E- A-	!LO:TX:t=P:problem=znaki B- e- a-	!	!	!	!	!LO:TX:t=P:problem=znaki b- e- a- bb-	!	!	!
!LO:TX:a:rj:t=lenti	!LO:TX:a:t=andante molto	!LO:TX:a:t=andante molto	!	!LO:TX:a:t=lente	!	!	!	!LO:TX:a:i:t=ad te ſuspiramus Tacet!	!LO:TX:a:i:t=ad te ſuspiramus Tacet!
2.F\	2.A-/	2.c/	.	4cc\	.	4cc\	Ad	2.ryy	2.ryy
.	.	.	.	8b-\L	.	(8b-\L	ad	.	.
.	.	.	.	8a-\	.	8a-\)	.	.	.
.	.	.	.	8g\	.	(8g\	te	.	.
.	.	.	.	8f\J	.	8f\J)	.	.	.
=2	=2	=2	=2	=2	=2	=2	=2	=2	=2
4r	4r	4r	.	8f/L	.	8f/L	ad	2.ryy	2.ryy
.	.	.	.	8en/J	.	8en/J	.	.	.
4G\	4B-/	4c/	.	4e/	.	4e/	te	.	.
4F\	4A-/	4c/	.	4r	.	4r	.	.	.
=3	=3	=3	=3	=3	=3	=3	=3	=3	=3
*2\right	*	*	*	*	*	*	*	*	*
2.En\	2G/	2c/	.	8r	.	8r	.	2.ryy	2.ryy
!	!	!	!	!LO:SIC:v:s=8dd-|\	!	!	!	!	!
.	.	.	.	8dd|\	.	8dd-X\	Sus-	.	.
.	.	.	.	(8cc\L	.	(8cc\L	-pi-	.	.
.	.	.	.	8b-\)	.	8b-\)	.	.	.
.	4r	4r	.	(8a-\	.	(8a-\	.	.	.
.	.	.	.	8g\J)	.	8g\J)	.	.	.
=4	=4	=4	=4	=4	=4	=4	=4	=4	=4
.	.	.	.	8qqa-/	.	.	.	.	.
4r	4r	4r	.	4g\	.	4a-\	-ra-	2.ryy	2.ryy
.	.	.	.	.	.	8qg/	.	.	.
*	*	*	*	*	*	*2\right	*	*	*
4F\	4A-/	4c/	.	2f/	.	2f\	-mus	.	.
!	!LO:TX:a:t=vi	!	!	!	!	!	!	!	!
4F\	4A-/	4c/	.	.	.	.	.	.	.
!	!	!	!	!	!	!LO:LB:g=original	!	!	!
=5	=5	=5	=5	=5	=5	=5	=5	=5	=5
*	*	*	*	*2\right	*	*	*	*	*
!	!LO:TX:a:t=de	!	!	!	!	!	!	!	!
4d-X\|	4d-X\	4f/	.	2b-\	.	2b-\	ge-	2.ryy	2.ryy
(4d-\	4d-\	4f/	.	.	.	.	.	.	.
!	!LO:TX:b:t=Re.	!	!	!	!	!	!	!	!
4c\)	4c\	4e-/	.	4a-\	.	4a-X\	.	.	.
!	!	!	!	!LO:LB:g=original	!	!	!	!	!
=6	=6	=6	=6	=6	=6	=6	=6	=6	=6
!	!LO:TX:b:t=tro	!	!	!	!	!	!	!	!
.	.	.	.	8qqb-/	.	8qqa-/	.	.	.
2B-\	2B-/	2d-X/	.	2f/	.	2g\	-men-	2.ryy	2.ryy
4A-\	4A-/	4c/	.	4f/	.	4f\	-tes	.	.
=7	=7	=7	=7	=7	=7	=7	=7	=7	=7
4r	4r	4r	.	8en/L	.	(8en/L	et	2.ryy	2.ryy
.	.	.	.	8g/J	.	8g/J)	.	.	.
4En\	4c\	4g/	.	4b-\	.	4b-\	flen-	.	.
4F\	4c\	4f/	.	4a-\	.	4a-X\	.	.	.
!	!	!LO:LB:g=original	!	!	!	!	!	!	!
=8	=8	=8	=8	=8	=8	=8	=8	=8	=8
!LO:TX:t=P:problem=mixed beam	!	!	!	!	!	!	!	!	!
8c\L	4c\	4f/	.	8a-\L	.	4a-\	-tes	2.ryy	2.ryy
8C/	.	.	.	8g\J	.	.	.	.	.
8c\	8c\L	4en/	.	2g\	.	4g\	.	.	.
8B-\	8B-\	.	.	.	.	.	.	.	.
8A-\	8A-\	4r	.	.	.	4r	.	.	.
8G\J	8G\J	.	.	.	.	.	.	.	.
=9	=9	=9	=9	=9	=9	=9	=9	=9	=9
2.F\	2.A-/	2.c/	.	4cc\	.	4cc\	Ad	2.ryy	2.ryy
.	.	.	.	8b-\L	.	(8b-\L	.	.	.
.	.	.	.	8a-\	.	8a-\)	.	.	.
.	.	.	.	8g\	.	(8g\	te	.	.
.	.	.	.	8f\J	.	8f\J)	.	.	.
!LO:LB:g=original	!	!	!	!	!	!	!	!	!
=10	=10	=10	=10	=10	=10	=10	=10	=10	=10
4r	4r	4r	.	8f/L	.	8f/L	ad	2.ryy	2.ryy
.	.	.	.	8en/J	.	8en/J	.	.	.
4G\	4B-/	4c/	.	2e/	.	4e/	te	.	.
4F\	4A-/	4c/	.	.	.	4r	.	.	.
=11	=11	=11	=11	=11	=11	=11	=11	=11	=11
2.En\	2G/	2c/	.	8r	.	8r	.	2.ryy	2.ryy
!	!	!	!	!LO:SIC:v:s=8dd-\L	!	!	!	!	!
.	.	.	.	8dd\L	.	8dd-X\	Sus-	.	.
.	.	.	.	8cc\	.	(8cc\L	.	.	.
.	.	.	.	8b-\	.	8b-\)	.	.	.
.	4r	4r	.	8a-\	.	(8a-\	-pi-	.	.
.	.	.	.	8g\J	.	8g\J)	.	.	.
!	!LO:LB:g=original	!	!	!	!	!	!	!	!
=12	=12	=12	=12	=12	=12	=12	=12	=12	=12
.	.	.	.	8qqb-/	.	.	.	.	.
4r	4r	4r	.	4a-/	.	4a-\	-ra-	2.ryy	2.ryy
.	.	.	.	.	.	8qqg/	.	.	.
4F\	4A-/	4c/	.	2f/	.	2f\	-mus	.	.
4F\	4A-/	4c/	.	.	.	.	.	.	.
=13	=13	=13	=13	=13	=13	=13	=13	=13	=13
4d-X\|	4d-X\	4f/	.	2b-\	.	2b-\	ge-	2.ryy	2.ryy
(4d-\	4d-\	4f/	.	.	.	.	.	.	.
4c\)	4c\	4e-/	.	4a-/	.	4a-X\	.	.	.
!	!	!	!	!	!	!LO:LB:g=original	!	!	!
=14	=14	=14	=14	=14	=14	=14	=14	=14	=14
.	.	.	.	.	.	8qqa-/	.	.	.
2B-\	2B-/	2d-X/	.	2g/	.	2g\	-men-	2.ryy	2.ryy
4A-\	4A-/	4c/	.	4f/	.	4f\	-tes	.	.
=15	=15	=15	=15	=15	=15	=15	=15	=15	=15
4r	4r	4r	.	8en/L	.	8en/L	et	2.ryy	2.ryy
.	.	.	.	8g/J	.	8g/J	.	.	.
4En\	4c\	4g/	.	4b-\	.	4b-\	.	.	.
4F\	4c\	4f/	.	4a-\	.	4a-X\	.	.	.
!	!	!	!	!LO:LB:g=original	!	!	!	!	!
=16	=16	=16	=16	=16	=16	=16	=16	=16	=16
4c\	4c\	4f/	.	4a-/	.	4a-\	flen-	2.ryy	2.ryy
4C/	4C/	4en/	.	4g/	.	4g\	-tes	.	.
4c\	4c\	4r	.	4r	.	4r	.	.	.
=17	=17	=17	=17	=17	=17	=17	=17	=17	=17
*	*tremolo	*	*	*	*	*	*	*	*
*	*2\right	*	*	*	*	*	*	*	*
!LO:TX:t=P:problem=mixed beam	!	!	!	!	!	!	!	!	!
8C/L	8c\L	4en/	.	4cc\	.	2ccT\	ad	2.ryy	2.ryy
8c\	8c\	.	.	.	.	.	.	.	.
8C/	8c\	4e/	.	4cc\	.	.	.	.	.
8c\	8c\	.	.	.	.	.	.	.	.
.	.	.	.	.	.	32qqdd/LLL	.	.	.
.	.	.	.	.	.	32qqcc/	.	.	.
.	.	.	.	.	.	32qqb-/	.	.	.
.	.	.	.	.	.	32qqdd/JJJ	.	.	.
8C/	8c\	4e/	.	4cc\	.	4cc\	te	.	.
8c\J	8c\J	.	.	.	.	.	.	.	.
!	!	!LO:LB:g=original	!	!	!	!	!	!	!
=18	=18	=18	=18	=18	=18	=18	=18	=18	=18
!LO:TX:t=P:problem=mixed beam	!	!	!	!	!	!	!	!	!
8C/L	8c\L	8e-/L	.	(8cc\L	.	8cc\L	ad	2.ryy	2.ryy
8c\	8c\	8f/J	.	8bn\J)	.	8bn\J	.	.	.
8C/	8c\	2f/	.	2b\	.	2b\	te	.	.
8c\	8c\	.	.	.	.	.	.	.	.
8C/	8c\	.	.	.	.	.	.	.	.
8c\J	8c\J	.	.	.	.	.	.	.	.
!LO:LB:g=original	!	!	!	!	!	!	!	!	!
=19	=19	=19	=19	=19	=19	=19	=19	=19	=19
!LO:TX:t=P:problem=mixed beam	!	!	!	!	!	!	!	!	!
8C/L	8c\L	(8g/L	.	(8b-X\L	.	(8b-X\L	Sus-	2.ryy	2.ryy
8c\	8c\	8b-/)	.	8dd-X\)	.	8dd-X\)	.	.	.
8C/	8c\	(8b-/	.	(8dd-\	.	(8dd-\	.	.	.
8c\	8c\	8a-X/)	.	8cc\)	.	8cc\)	.	.	.
8C/	8c\	(8a-/	.	(8cc\	.	(8cc\	-pi-	.	.
8c\J	8c\J	8g/J)	.	8b-\J)	.	8b-\J)	.	.	.
=20	=20	=20	=20	=20	=20	=20	=20	=20	=20
!LO:TX:t=P:problem=mixed beam	!	!	!	!	!	!	!	!	!
8C/L	8c\L	8g/L	.	(8b-\L	.	8b-\L	-ra-	2.ryy	2.ryy
8c\	8c\	8f/J	.	8a-\J)	.	8a-X\J	.	.	.
8C/	8c\	2f/	.	2a-\	.	2a-\	-mus	.	.
8c\	8c\	.	.	.	.	.	.	.	.
8C/	8c\	.	.	.	.	.	.	.	.
8c\J	8c\J	.	.	.	.	.	.	.	.
*	*Xtremolo	*	*	*	*	*	*	*	*
=21	=21	=21	=21	=21	=21	=21	=21	=21	=21
4D-X\	4d-X\	4f/	.	4a-/	.	2.a-\	ge-	2.ryy	2.ryy
4C\	4c\	4f/	.	4a-/	.	.	.	.	.
4BBn\	4Bn\	4f/	.	4a-/	.	.	.	.	.
=22	=22	=22	=22	=22	=22	=22	=22	=22	=22
2C\	2c\	4en/	.	4g\	.	4g\	-men-	2.ryy	2.ryy
.	.	4e/	.	4cc\	.	4cc\	-tes	.	.
4C\	4c\	4g/	.	4b-\	.	4b-\	et	.	.
=23	=23	=23	=23	=23	=23	=23	=23	=23	=23
4D-X\	4d-X\	4f/	.	4a-\	.	2.a-\	flen-	2.ryy	2.ryy
4C\	4c\	4f/	.	4a-\	.	.	.	.	.
4BBn\	4Bn\	4f/	.	4a-\	.	.	.	.	.
!	!LO:LB:g=original	!	!	!	!	!	!	!	!
=24	=24	=24	=24	=24	=24	=24	=24	=24	=24
.	.	.	.	8qqb-/	.	8qqb-/	.	.	.
4C/	4c\	4f/|	.	4a-/	.	4a-\	.	2.ryy	2.ryy
8c\L	8c\L	4en/	.	4g/	.	4g\	-tes	.	.
8B-\	8B-\	.	.	.	.	.	.	.	.
8A-\	8A-\	4r	.	4r	.	4r	.	.	.
8G\J	8G\J	.	.	.	.	.	.	.	.
!	!	!	!	!LO:PB:g=original	!	!LO:LB:g=original	!	!	!
=25	=25	=25	=25	=25	=25	=25	=25	=25	=25
2.F\	2.A-/	2.c/	.	4cc\	.	8r	.	2.ryy	2.ryy
.	.	.	.	.	.	8cc\	ad	.	.
.	.	.	.	(8b-\L	.	(8b-\L	te	.	.
.	.	.	.	8a-\)	.	8a-\)	.	.	.
.	.	.	.	(8g\	.	8g\|	sus-	.	.
.	.	.	.	8f\J)	.	8f\J|	-pi-	.	.
=26	=26	=26	=26	=26	=26	=26	=26	=26	=26
4r	4r	4r	.	8f/L	.	8f/L	-ra-	2.ryy	2.ryy
.	.	.	.	8en/J	.	8en/J	.	.	.
4G\	4B-/	4c/	.	2e/	.	2e/	-mus	.	.
4F\	4A-/	4c/	.	.	.	.	.	.	.
=27	=27	=27	=27	=27	=27	=27	=27	=27	=27
2.En\	2G/	2c/	.	8r	.	8r	.	2.ryy	2.ryy
!	!	!	!	!LO:SIC:v:s=8dd-|\L	!	!	!	!	!
.	.	.	.	8dd|\L	.	8dd-X\	ge-	.	.
.	.	.	.	(8cc\	.	(8cc\L	-men-	.	.
.	.	.	.	8b-\)	.	8b-\)	.	.	.
.	4r	4r	.	(8a-\	.	8a-|\	-tes	.	.
.	.	.	.	8g\J)	.	8g|\J	et	.	.
!	!	!LO:LB:g=original	!	!	!	!	!	!	!
=28	=28	=28	=28	=28	=28	=28	=28	=28	=28
.	.	.	.	8qqb-/	.	.	.	.	.
4r	4r	4c/	.	4a-\	.	4a-\	flen-	2.ryy	2.ryy
.	.	.	.	.	.	8qqg/	.	.	.
4F\	4A-/	4c/	.	4g\	.	4f/	-tes	.	.
4FF/	4A-/	4r	.	4r	.	4r	.	.	.
!LO:LB:g=original	!	!	!	!	!	!	!	!	!
=29	=29	=29	=29	=29	=29	=29	=29	=29	=29
4d-X|\	4d-X\	2f/	.	2b-\	.	2b-\	in	2.ryy	2.ryy
(4d-\	4d-\	.	.	.	.	.	.	.	.
4c\)	4c\	4e-/	.	4a-\	.	4a-\	hac	.	.
=30	=30	=30	=30	=30	=30	=30	=30	=30	=30
2B-\	2B-\	2d-X/	.	2g\	.	2g\	la-	2.ryy	2.ryy
4A-\	4A-\	4c/	.	4f\	.	4f\	-cry-	.	.
=31	=31	=31	=31	=31	=31	=31	=31	=31	=31
4B-\	4B-\	4r	.	8g/L	.	8g\L	-ma-	2.ryy	2.ryy
.	.	.	.	8b-/J	.	8b-\J	.	.	.
4c\	4c\	4c/	.	4a-/	.	4a-\	-rum	.	.
4C/	4c\	4c/	.	4g/	.	4g\	va-	.	.
=32	=32	=32	=32	=32	=32	=32	=32	=32	=32
2D-X\	2d-X\	2A-/	.	2f/	.	2f/	-le	2.ryy	2.ryy
4r	4r	4r	.	4r	.	4r	.	.	.
=33	=33	=33	=33	=33	=33	=33	=33	=33	=33
!	!LO:SIC:v:s=4d-\	!	!	!	!	!	!	!	!
4d-X\	4d\	2f/	.	2b-\	.	2b-\	in	2.ryy	2.ryy
!	!LO:SIC:v:s=4d-\	!	!	!	!	!	!	!	!
4d-\	4d\	.	.	.	.	.	.	.	.
4c\	4c\	4e-/	.	4a-\	.	4a-\	hac	.	.
!	!LO:LB:g=original	!	!	!LO:LB:g=original	!	!	!	!	!
=34	=34	=34	=34	=34	=34	=34	=34	=34	=34
.	.	.	.	8qqa-/	.	.	.	.	.
2B-\	2B-\	2d-X/	.	2g/	.	2g\	la-	2.ryy	2.ryy
4A-X\	4A-\	4c/	.	8f\L	.	8f\L	-cry-	.	.
.	.	.	.	8ff\J	.	8ff\J	.	.	.
!	!	!	!	!	!	!LO:LB:g=original	!	!	!
=35	=35	=35	=35	=35	=35	=35	=35	=35	=35
!	!	!	!	!LO:SIC:v:s=8dd-\L	!	!	!	!	!
4BB-/	4B-\	8b-\L|	.	8dd\L	.	8dd\L	-ma-	2.ryy	2.ryy
.	.	(16a-\L	.	16cc\L	.	8b-\J	.	.	.
.	.	16g\JJ)	.	16b-\JJ	.	.	.	.	.
4C/	4c\	4f/|>	.	4a-\	.	4a-\	-rum	.	.
4CC/	4c\	4en/|>	.	4g'\	.	4g\	va-	.	.
=36	=36	=36	=36	=36	=36	=36	=36	=36	=36
!LO:TX:t=P:problem=mixed beam	!	!	!	!LO:TX:b:t=f	!	!	!	!	!
8FF/L	4c\	4f/|>	.	4f/	.	2f/	-le.	2.ryy	2.ryy
8F\	.	.	.	.	.	.	.	.	.
!	!	!	!LO:DY:b:t=fortiſ	!LO:TX:a:t=A	!LO:DY:b:t=for.	!	!	!	!
8FF/	2c\	2e-X/	ff	2an\	f	.	.	.	.
8F\	.	.	.	.	.	.	.	.	.
8FF/	.	.	.	.	.	4r	.	.	.
!LO:TX:t=P:problem=skreślony takt	!	!	!	!	!	!	!	!	!
8F\J	.	.	.	.	.	.	.	.	.
!LO:LB:g=original	!	!LO:LB:g=original	!	!	!	!	!	!	!
=37	=37	=37	=37	=37	=37	=37	=37	=37	=37
!	!	!	!LO:DY:b:t=Pianiſ	!	!LO:DY:b:t=pia	!LO:TX:b:t=5	!	!	!
8BB-/L	2B-\	(8d-X/L	pp	8b-\L	p	0.r	.	2.ryy	2.ryy
8BB-/	.	8e-/)	.	8cc\	.	.	.	.	.
8BB-/	.	(8f/	.	8dd-X\	.	.	.	.	.
8BB-/	.	8B-/)	.	8b-\	.	.	.	.	.
8C/	4c\	(8A-/	.	8g\	.	.	.	.	.
8C/J	.	8G/J)	.	8en\J	.	.	.	.	.
=38	=38	=38	=38	=38	=38	=38	=38	=38	=38
!LO:TX:t=P:problem=mixed beam	!	!	!	!	!	!	!	!	!
8FF/L	4c\	4A-/	.	4f\	.	.	.	2.ryy	2.ryy
8F\	.	.	.	.	.	.	.	.	.
!	!	!	!LO:DY:b:t=for	!LO:TX:a:t=A	!LO:DY:b:rj	!	!	!	!
8FF/	2c\	2e-X/	f	2an\	f	.	.	.	.
8F\	.	.	.	.	.	.	.	.	.
8FF/	.	.	.	.	.	.	.	.	.
8F\J	.	.	.	.	.	.	.	.	.
=39	=39	=39	=39	=39	=39	=39	=39	=39	=39
!	!	!	!LO:DY:b:t=Pianiſ	!	!	!	!	!	!
8BB-/L	2B-\	(8d-/L	p	8b-\L|	.	.	.	2.ryy	2.ryy
8BB-/	.	8e-/)	.	8cc\|	.	.	.	.	.
8BB-/	.	(8f/	.	(8dd-X\	.	.	.	.	.
8BB-/	.	8B-/)	.	8b-\)	.	.	.	.	.
8C/	4c\	(8A-/	.	(8g\	.	.	.	.	.
8C/J	.	8G/J)	.	8en\J)	.	.	.	.	.
=40	=40	=40	=40	=40	=40	=40	=40	=40	=40
4FF/	4c\	4A-/	.	4f/|	.	.	.	2.ryy	2.ryy
4FF/	4c\	4A-/	.	4f/|	.	.	.	.	.
4FF/	4c\	4A-/	.	4f/|	.	.	.	.	.
=41	=41	=41	=41	=41	=41	=41	=41	=41	=41
2FF/	2F/	2A-/	.	2f/	.	2.r	.	2.ryy	2.ryy
4r	4r	4r	.	4r	.	.	.	.	.
==	==	==	==	==	==	==	==	==	==
*-	*-	*-	*-	*-	*-	*-	*-	*-	*-
!!!system-decoration: [(g1)]s3[(g2)]
!!!RDF**kern: > = above
!!!RDF**kern: | = vertical stroke
!!!AIN: 1 cbass 2 cor 1 soprn 1 viola 2 violn
!!!ENC: Andrzej Gręziak
!!!END: 2020-10-04
!!!ENC: Marta Lawrence
!!!END: 2022-01-27
